images/YT.svg

<svg width="20" height="15" viewBox="0 0 20 15" fill="none" xmlns="http://www.w3.org/2000/svg">
<path d="M10.0638 0H10.175C11.2025 0.00375 16.4088 0.0412502 17.8125 0.41875C18.2369 0.533961 18.6236 0.758528 18.934 1.07001C19.2443 1.38149 19.4675 1.76898 19.5813 2.19375C19.7075 2.66875 19.7963 3.2975 19.8563 3.94625L19.8688 4.07625L19.8963 4.40125L19.9063 4.53125C19.9875 5.67375 19.9975 6.74375 19.9988 6.9775V7.07125C19.9975 7.31375 19.9863 8.45625 19.8963 9.64625L19.8863 9.7775L19.875 9.9075C19.8125 10.6225 19.72 11.3325 19.5813 11.855C19.4675 12.2798 19.2443 12.6673 18.934 12.9787C18.6236 13.2902 18.2369 13.5148 17.8125 13.63C16.3625 14.02 10.8513 14.0475 10.0875 14.0487H9.91C9.52375 14.0487 7.92625 14.0413 6.25125 13.9838L6.03875 13.9763L5.93 13.9713L5.5025 13.9538C4.115 13.8925 2.79375 13.7938 2.185 13.6288C1.76078 13.5136 1.37419 13.2893 1.06381 12.978C0.753441 12.6668 0.530154 12.2795 0.41625 11.855C0.2775 11.3338 0.185 10.6225 0.1225 9.9075L0.1025 9.64625C0.0404543 8.79927 0.00626915 7.95048 0 7.10125V6.9475C0.0025 6.67875 0.0125 5.75 0.08 4.725L0.08875 4.59625L0.0925 4.53125L0.1025 4.40125L0.13 4.07625L0.1425 3.94625C0.2025 3.2975 0.29125 2.6675 0.4175 2.19375C0.531213 1.76898 0.754415 1.38149 1.0648 1.07001C1.37519 0.758528 1.76188 0.533961 2.18625 0.41875C2.795 0.25625 4.11625 0.15625 5.50375 0.0937499L5.71625 0.0849999L6.03875 0.0737502L6.2525 0.0650002C7.44214 0.0267545 8.63226 0.0055022 9.8225 0.00125006L10.0638 0ZM8 4.0125V10.035L13.1963 7.025L8 4.0125Z" fill="#F7F7F7"/>
</svg>

<?xml version="1.0" encoding="UTF-8"?>
<svg id="_圖層_1" data-name="圖層_1" xmlns="http://www.w3.org/2000/svg" version="1.1" viewBox="0 0 20 14.05">
  <!-- Generator: Adobe Illustrator 30.6.0, SVG Export Plug-In . SVG Version: 2.1.4 Build 109)  -->
  <defs>
    <style>
      .st0 {
        fill: #f7f7f7;
      }
    </style>
  </defs>
  <path class="st0" d="M10.06,0h.11c1.03,0,6.23.04,7.64.42.42.12.81.34,1.12.65.31.31.53.7.65,1.12.13.48.22,1.1.27,1.75v.13s.04.32.04.32v.13c.09,1.14.1,2.21.1,2.45v.09c0,.24-.01,1.39-.1,2.57v.13s-.02.13-.02.13c-.06.72-.16,1.43-.29,1.95-.11.42-.34.81-.65,1.12-.31.31-.7.54-1.12.65-1.45.39-6.96.42-7.73.42h-.18c-.39,0-1.98,0-3.66-.06h-.21s-.11-.01-.11-.01l-.43-.02c-1.39-.06-2.71-.16-3.32-.32-.42-.12-.81-.34-1.12-.65-.31-.31-.53-.7-.65-1.12-.14-.52-.23-1.23-.29-1.95l-.02-.26c-.06-.85-.1-1.7-.1-2.54v-.15c0-.27.01-1.2.08-2.22v-.13s.01-.07.01-.07v-.13s.04-.32.04-.32v-.13c.07-.65.16-1.28.29-1.75.11-.42.34-.81.65-1.12.31-.31.7-.54,1.12-.65.61-.16,1.93-.26,3.32-.33h.21s.32-.02.32-.02h.21C7.44.03,8.63,0,9.82,0h.24ZM8,4.01v6.02l5.2-3.01-5.2-3.01Z"/>
</svg>
